src/48x48/places/folder-gruvbox-original-yellow-yandex-disk.svg

<?xml version="1.0" encoding="UTF-8"?>
<svg width="48" height="48" version="1" xmlns="http://www.w3.org/2000/svg">
 <rect x="4" y="17" width="40" height="26" rx="2" ry="2" opacity=".2"/>
 <path d="m4 34c0 1.108 0.892 2 2 2h36c1.108 0 2-0.892 2-2v-22c0-1.108-0.892-2-2-2h-18c-3 0-4-4-7-4h-11c-1.108 0-2 0.892-2 2" fill="#b57614"/>
 <rect x="4" y="15" width="40" height="26" rx="2" ry="2" opacity=".2"/>
 <rect x="6" y="13" width="36" height="16" rx="2" ry="2" fill="#f3deaa"/>
 <rect x="4" y="16" width="40" height="26" rx="2" ry="2" fill="#fabd2f"/>
 <path d="m6 6c-1.108 0-2 0.892-2 2v1c0-1.108 0.892-2 2-2h11c3 0 4 4 7 4h18c1.108 0 2 0.892 2 2v-1c0-1.108-0.892-2-2-2h-18c-3 0-4-4-7-4z" fill="#f3deaa" opacity=".1"/>
 <path d="m23.092 23.047c-3.556 0-2.729 3.248-4.549 4.226-0.063 0.036-0.098 0.069-0.154 0.104 1.2-0.715 2.68-1.312 4.252-1.717 1.331-0.343 2.68-0.535 3.925-0.559h0.096c-1.2-0.341-1.332-2.054-3.57-2.054zm3.875 2.955c-1.245 0.024-2.595 0.216-3.926 0.558-4.386 1.129-7.513 3.584-6.982 5.483 0.305 1.085 1.777 1.801 3.97 1.931-1e-3 -8e-3 -3e-3 -0.015-4e-3 -0.023-0.118-1.027 0.533-1.92 1.297-2.526 0.764-0.605 1.746-1.045 2.85-1.279 1.103-0.234 2.136-0.223 3 0.037 0.812 0.245 1.576 0.778 1.763 1.694 2.199-1.233 3.339-2.719 3.008-3.92-0.35-1.258-2.258-2.008-4.976-1.955zm-1.305 4.998a1.8586 3.577 76.001 0 0-1.377 0.142 1.8586 3.577 76.001 0 0-3.279 2.6 1.8586 3.577 76.001 0 0 3.709 1.115 1.8586 3.577 76.001 0 0 3.277-2.599 1.8586 3.577 76.001 0 0-2.33-1.258z" fill="#473c29"/>
</svg>

<svg xmlns="http://www.w3.org/2000/svg" width="48" height="48" version="1">
 <rect style="opacity:0.2" width="40" height="26" x="4" y="17" rx="2" ry="2"/>
 <path style="fill:#b57614" d="M 4,34 C 4,35.108 4.892,36 6,36 H 42 C 43.108,36 44,35.108 44,34 V 12 C 44,10.892 43.108,10 42,10 H 24 C 21,10 20,6 17,6 H 6 C 4.892,6 4,6.892 4,8"/>
 <rect style="opacity:0.2" width="40" height="26" x="4" y="15" rx="2" ry="2"/>
 <rect style="fill:#f3deaa" width="36" height="16" x="6" y="13" rx="2" ry="2"/>
 <rect style="fill:#fabd2f" width="40" height="26" x="4" y="16" rx="2" ry="2"/>
 <path style="opacity:0.1;fill:#f3deaa" d="M 6,6 C 4.892,6 4,6.892 4,8 V 9 C 4,7.892 4.892,7 6,7 H 17 C 20,7 21,11 24,11 H 42 C 43.108,11 44,11.892 44,13 V 12 C 44,10.892 43.108,10 42,10 H 24 C 21,10 20,6 17,6 Z"/>
 <path style="fill:#473c29" d="M 23.092,23.047 C 19.536,23.047 20.363,26.295 18.543,27.273 18.48,27.309 18.445,27.342 18.389,27.377 19.589,26.662 21.069,26.065 22.641,25.66 23.972,25.317 25.321,25.125 26.566,25.101 26.598,25.101 26.63,25.101 26.662,25.101 25.462,24.76 25.33,23.047 23.092,23.047 Z M 26.967,26.002 C 25.722,26.026 24.372,26.218 23.041,26.56 18.655,27.689 15.528,30.144 16.059,32.043 16.364,33.128 17.836,33.844 20.029,33.974 20.028,33.966 20.026,33.959 20.025,33.951 19.907,32.924 20.558,32.031 21.322,31.425 22.086,30.82 23.068,30.38 24.172,30.146 25.275,29.912 26.308,29.923 27.172,30.183 27.984,30.428 28.748,30.961 28.935,31.877 31.134,30.644 32.274,29.158 31.943,27.957 31.593,26.699 29.685,25.949 26.967,26.002 Z M 25.662,31 A 1.8586,3.577 76.001 0 0 24.285,31.142 1.8586,3.577 76.001 0 0 21.006,33.742 1.8586,3.577 76.001 0 0 24.715,34.857 1.8586,3.577 76.001 0 0 27.992,32.258 1.8586,3.577 76.001 0 0 25.662,31 Z"/>
</svg>
